X:6
T:Wohlfahrt 6 (Op. 45 No. 4)
C:Franz Wohlfahrt / K.H. Aiquoni
L:1/16
Q:1/4=80
M:2/4
I:linebreak $
K:C
"G" d2Bc d2ga | b2Bc d2ed |"D7" c2AB c2ba |"G" g2Bc d4 |$"G" d2Bc d2ga | b2Bc d2ed | 
"A7" ^c2ba g2Bc |"D" d2A^F D2ed |$"D7" =c2^fg a2ba |"G" g2Bc d2ed |"D7" =c2^fg a2ba | 
"G" g2Bc d2ga |$"B7" b2^f^d B2df |"Em" a2g^f g2fe |"A7" d2^cB A2^fg |"D7" b2B^c d2cd |$ 
"A7" e2AA A2^fg |"D" b2aa a2ba |"A7" g2AA A2ag |"D" ^f2dd d2^cd |$"A7" e2AA A2^fg | b2aa a2^cd | 
"A7" e2gb a2B^c |"D" d2^cd"A7" e2dc |$"D" d2^cd"A7" e2dc |"D" d2AA A2ed | d2BB B2ed | d2=cc c2^fg | 
b2a^g a2Bc ||$"G" d2Bc d2ga | b2Bc d2ed |"D7" c2AB c2ba |"G" g2Bc d4 |"G" d2Bc d2ga | 
b2Bc d2g^f |$"C" e2ag"D" ^f2ba |"G" g2bg"D" d2e^f |"G" g2bg"D" d2e^f |"G" g2bg d2gd | 
"G" B2dB G2BG |"G" D2GD B,2DB, |"G" G,2 z2 z4 |] 



